src/16/panel/vivaldi-tray.svg

<svg xmlns="http://www.w3.org/2000/svg" width="16" height="16" version="1.1">
 <defs>
  <style id="current-color-scheme" type="text/css">
   .ColorScheme-Text { color:#dfdfdf; } .ColorScheme-Highlight { color:#4285f4; }
  </style>
 </defs>
 <path style="fill:currentColor" class="ColorScheme-Text" d="M 14,1 C 13.026,1 12,1.7835 12,2.75 12.001,2.9838 12.12,3.3148 12.213,3.53 12.227,3.5805 12.238,3.6393 12.254,3.682 12.623,5.0931 12.247,6.0968 11.406,7.1011 10.23,8.2764 8.9403,8.2965 7.7712,7.1485 L 4.2041,1.5554 C 3.8425,1.1684 3.3394,1.0297 2.8789,1.0274 1.8889,1.0111 1.2029,1.7948 1.0401,2.6355 0.91979,3.3083 0.86482,3.1917 4.0628,8.9537 6.0814,12.59 7.0402,14.268 7.1976,14.433 7.7544,15.017 8.5503,15.161 9.2932,14.814 9.4882,14.723 9.7088,14.558 9.85,14.401 10.126,14.09 15.759,3.8211 15.853,3.4678 15.963,3.2327 15.987,2.9844 16,2.75 16,1.7835 14.975,1 14,1 Z"/>
</svg>

<svg xmlns="http://www.w3.org/2000/svg" width="16" height="16"><defs><style id="current-color-scheme" type="text/css"></style></defs><path d="M14 1c-.974 0-2 .784-2 1.75.001.234.12.565.213.78.014.05.025.11.041.152.369 1.411-.007 2.415-.848 3.42-1.176 1.174-2.466 1.194-3.635.046L4.204 1.556c-.361-.387-.865-.525-1.325-.528-.99-.016-1.676.768-1.839 1.609-.12.672-.175.556 3.023 6.318 2.018 3.636 2.977 5.314 3.135 5.479.556.584 1.352.728 2.095.381a1.9 1.9 0 0 0 .557-.413c.276-.311 5.909-10.58 6.003-10.933.11-.235.134-.484.147-.718C16 1.784 14.975 1 14 1z" fill="currentColor" color="#bebebe"/></svg>
